usr/share/icons/Yaru-Cinnamon/scalable/actions/view-sidebar-symbolic.svg

<?xml version="1.0" encoding="UTF-8" standalone="no"?>
<svg
   xmlns:dc="http://purl.org/dc/elements/1.1/"
   xmlns:cc="http://creativecommons.org/ns#"
   xmlns:rdf="http://www.w3.org/1999/02/22-rdf-syntax-ns#"
   xmlns:svg="http://www.w3.org/2000/svg"
   xmlns="http://www.w3.org/2000/svg"
   xmlns:sodipodi="http://sodipodi.sourceforge.net/DTD/sodipodi-0.dtd"
   xmlns:inkscape="http://www.inkscape.org/namespaces/inkscape"
   width="4.2333331mm"
   height="4.2333331mm"
   viewBox="0 0 4.2333331 4.2333331"
   version="1.1"
   id="svg10539"
   inkscape:version="1.0.1 (3bc2e813f5, 2020-09-07)"
   sodipodi:docname="view-sidebar-symbolic.svg">
  <defs
     id="defs10533" />
  <sodipodi:namedview
     id="base"
     pagecolor="#ffffff"
     bordercolor="#666666"
     borderopacity="1.0"
     inkscape:pageopacity="0"
     inkscape:pageshadow="2"
     inkscape:zoom="31.678384"
     inkscape:cx="11.761263"
     inkscape:cy="3.6384498"
     inkscape:document-units="px"
     inkscape:current-layer="layer1"
     showgrid="true"
     fit-margin-top="0"
     fit-margin-left="0"
     fit-margin-right="0"
     fit-margin-bottom="0"
     inkscape:window-width="1920"
     inkscape:window-height="1011"
     inkscape:window-x="0"
     inkscape:window-y="0"
     inkscape:window-maximized="1"
     inkscape:document-rotation="0">
    <inkscape:grid
       type="xygrid"
       id="grid11109" />
  </sodipodi:namedview>
  <metadata
     id="metadata10536">
    <rdf:RDF>
      <cc:Work
         rdf:about="">
        <dc:format>image/svg+xml</dc:format>
        <dc:type
           rdf:resource="http://purl.org/dc/dcmitype/StillImage" />
        <dc:title></dc:title>
      </cc:Work>
    </rdf:RDF>
  </metadata>
  <g
     inkscape:label="Layer 1"
     inkscape:groupmode="layer"
     id="layer1"
     transform="translate(45.205952,-342.50834)">
    <g
       id="g850">
      <rect
         style="opacity:0.5;fill:#808080;fill-rule:evenodd;stroke:none;stroke-width:1.05833;stroke-linecap:round;stroke-linejoin:round;fill-opacity:1"
         id="rect845"
         width="1.0583333"
         height="2.9104166"
         x="-44.941368"
         y="343.56668" />
      <g
         color="#000000"
         fill="#808080"
         id="g6"
         transform="matrix(0.26458333,0,0,0.26458333,-45.205952,342.50834)">
        <path
           id="path5525-3"
           style="color:#000000;font-style:normal;font-variant:normal;font-weight:normal;font-stretch:normal;font-size:medium;line-height:normal;font-family:sans-serif;text-indent:0;text-align:start;text-decoration:none;text-decoration-line:none;text-decoration-style:solid;text-decoration-color:#000000;letter-spacing:normal;word-spacing:normal;text-transform:none;writing-mode:lr-tb;direction:ltr;baseline-shift:baseline;text-anchor:start;white-space:normal;clip-rule:nonzero;display:inline;overflow:visible;visibility:visible;isolation:auto;mix-blend-mode:normal;color-interpolation:sRGB;color-interpolation-filters:linearRGB;solid-color:#000000;solid-opacity:1;fill:#808080;fill-opacity:1;fill-rule:nonzero;stroke:none;stroke-width:4.00079;stroke-linecap:butt;stroke-linejoin:miter;stroke-miterlimit:4;stroke-dasharray:none;stroke-dashoffset:0;stroke-opacity:1;marker:none;color-rendering:auto;image-rendering:auto;shape-rendering:auto;text-rendering:auto;enable-background:accumulate"
           d="M 3.9492188 1 C 2.7050526 1.01457 1.7951413 0.96944573 1.0507812 1.3847656 C 0.67860646 1.5924156 0.38549025 1.9441555 0.22265625 2.3828125 C 0.059779253 2.8214735 -3.7007434e-17 3.34239 0 4 L 0 8 L 0 13 C 0 13.65761 0.059821253 14.178513 0.22265625 14.617188 C 0.38548025 15.055842 0.67860646 15.407574 1.0507812 15.615234 C 1.7951412 16.0306 2.7050428 15.9855 3.9492188 16 L 3.953125 16 L 5.9335938 16 L 7 16 L 9 16 L 10.066406 16 L 12.046875 16 L 12.050781 16 C 13.294957 15.9855 14.204859 16.0306 14.949219 15.615234 C 15.321394 15.407574 15.61452 15.055842 15.777344 14.617188 C 15.940186 14.178513 16 13.65761 16 13 L 16 8 L 16 4 C 16 3.34239 15.940221 2.8214735 15.777344 2.3828125 C 15.61451 1.9441555 15.321394 1.5924156 14.949219 1.3847656 C 14.204859 0.96944575 13.294947 1.01457 12.050781 1 L 12.046875 1 L 10.066406 1 L 9 1 L 7 1 L 5.9335938 1 L 3.953125 1 L 3.9492188 1 z M 1.1132812 4 L 5 4 L 5 14.992188 C 3.5416291 14.989453 2.3538241 14.971761 1.7539062 14.775391 C 0.78138847 14.328181 0.98828125 13 0.98828125 12 C 0.98912225 9.876828 1.0254715 6.323039 1.1132812 4 z M 6 4 L 7 4 L 9 4 L 10.066406 4 L 14.886719 4 C 14.974529 6.323039 15.010878 9.876828 15.011719 12 C 15.011719 13 15.218612 14.328181 14.246094 14.775391 C 13.512176 15.01562 12.044113 15 10.066406 15 L 9 15 L 7 15 L 6 15 L 6 4 z " />
      </g>
    </g>
  </g>
</svg>

<svg version="1.1" viewBox="0 0 16 16" xmlns="http://www.w3.org/2000/svg">
 <g color="#000000" fill="#808080">
  <rect x="1" y="4" width="5" height="11" fill-rule="evenodd" opacity=".5" stroke-linecap="square"/>
  <path d="m3.9492 1c-1.2442 0.01457-2.1541-0.030554-2.8984 0.38477-0.37217 0.20765-0.66529 0.55939-0.82812 0.99805-0.16288 0.43866-0.22266 0.95958-0.22266 1.6172v4 5c0 0.65761 0.059821 1.1785 0.22266 1.6172 0.16282 0.43866 0.45595 0.79039 0.82812 0.99805 0.74436 0.41537 1.6543 0.37027 2.8984 0.38477h0.0039062 1.9805 1.0664 2 1.0664 1.9805 0.003906c1.2442-0.0145 2.1541 0.0306 2.8984-0.38477 0.37218-0.20766 0.6653-0.55939 0.82812-0.99805 0.16284-0.43868 0.22266-0.95958 0.22266-1.6172v-5-4c0-0.65761-0.05978-1.1785-0.22266-1.6172-0.16283-0.43866-0.45595-0.7904-0.82812-0.99805-0.74436-0.41532-1.6543-0.3702-2.8984-0.38477h-0.003906-1.9805-1.0664-2-1.0664-1.9805-0.0039062zm-2.8359 3h4.8203 0.066406v11h-0.066406c-1.9777 0-3.4458 0.01562-4.1797-0.22461-0.97252-0.44721-0.76562-1.7754-0.76562-2.7754 8.41e-4 -2.1232 0.03719-5.677 0.125-8zm5.8867 0h2 1.0664 4.8203c0.08781 2.323 0.12416 5.8768 0.125 8 0 1 0.20689 2.3282-0.76562 2.7754-0.73392 0.24023-2.202 0.22461-4.1797 0.22461h-1.0664-2v-11z" color="#000000" color-rendering="auto" image-rendering="auto" shape-rendering="auto" solid-color="#000000" style="isolation:auto;mix-blend-mode:normal;text-decoration-color:#000000;text-decoration-line:none;text-decoration-style:solid;text-indent:0;text-transform:none;white-space:normal"/>
 </g>
</svg>
